X: 31
T: Mason's Apron, The
Z: dersulle
S: https://thesession.org/tunes/74#setting49323
R: reel
M: 4/4
L: 1/8
K: Gmaj
|:dBAB G3E|DEGA BG3|AcBG AGEG|G (3Bcd edge|
dBAB GAGE|DEGA BG3|c3d edge|1 dBAB G2GB:|2 dBAB G2GD||
|:G2dG eGdG|G2dG eGdG|A2eggge2|(3Bcd ed gedB|
G2dG eGdG|G2dG eGdG|c3d edge|1 dBAB G2GD:|2 dBAB G2GB||

